flaticon/transport/dump-truck.svg

<svg xmlns="http://www.w3.org/2000/svg" width="32" height="32" viewBox="0 0 24 24">
    <path d="M 23.640625 10.042969 L 20.167969 6.210938 C 19.886719 5.929688 19.527344 5.769531 19.167969 5.769531 L 15.496094 5.769531 C 14.855469 5.769531 14.375 6.289062 14.375 6.886719 L 14.375 15.394531 L 12.441406 15.394531 L 13.925781 5.011719 L 17.570312 5.011719 C 17.808594 5.011719 17.96875 4.851562 17.96875 4.613281 C 17.96875 4.371094 17.808594 4.214844 17.570312 4.214844 L 13.757812 4.214844 L 11.859375 1.9375 C 11.820312 1.898438 11.699219 1.816406 11.621094 1.816406 L 8.824219 1.417969 C 8.707031 1.417969 8.585938 1.457031 8.503906 1.539062 L 7.347656 2.695312 L 6.308594 3.375 L 4.074219 3.015625 C 3.875 2.976562 3.675781 3.09375 3.632812 3.253906 L 2.527344 6.210938 L 1.996094 6.210938 C 1.835938 6.210938 1.675781 6.289062 1.597656 6.449219 L 0 10.441406 C 0 10.523438 0 10.601562 0 10.683594 L 1.199219 15.875 L 1.199219 19.226562 C 1.199219 19.746094 1.636719 20.1875 2.15625 20.1875 L 2.425781 20.1875 C 2.613281 21.550781 3.769531 22.582031 5.191406 22.582031 C 6.613281 22.582031 7.769531 21.550781 7.957031 20.1875 L 16.402344 20.1875 C 16.589844 21.550781 17.746094 22.582031 19.167969 22.582031 C 20.589844 22.582031 21.746094 21.550781 21.933594 20.1875 L 23 20.1875 C 23.519531 20.1875 23.960938 19.746094 24 19.226562 L 24 10.960938 C 24 10.601562 23.878906 10.28125 23.640625 10.042969 Z M 23.160156 10.960938 L 23.160156 12.199219 L 17.171875 12.199219 L 17.171875 8.207031 L 20.804688 8.207031 L 23 10.601562 C 23.03125 10.621094 23.054688 10.648438 23.078125 10.675781 C 23.085938 10.6875 23.097656 10.703125 23.105469 10.71875 C 23.144531 10.796875 23.160156 10.886719 23.160156 10.960938 Z M 4.234375 3.855469 L 6.308594 4.214844 C 6.429688 4.214844 6.507812 4.214844 6.628906 4.09375 L 7.828125 3.292969 C 7.867188 3.292969 7.90625 3.253906 7.90625 3.253906 L 8.945312 2.214844 L 11.382812 2.574219 L 12.738281 4.214844 L 11.179688 4.214844 C 11.160156 4.214844 11.140625 4.214844 11.121094 4.214844 C 11.121094 4.214844 11.121094 4.214844 11.121094 4.21875 C 11.101562 4.21875 11.085938 4.222656 11.066406 4.226562 C 11.0625 4.226562 11.058594 4.230469 11.054688 4.230469 C 11.042969 4.234375 11.035156 4.238281 11.023438 4.242188 C 10.921875 4.277344 10.835938 4.347656 10.78125 4.453125 L 10.183594 5.96875 C 10.101562 6.128906 9.984375 6.210938 9.824219 6.210938 L 3.355469 6.210938 Z M 1.164062 12.199219 C 1.175781 12.199219 1.1875 12.199219 1.199219 12.199219 L 7.1875 12.199219 C 7.425781 12.199219 7.585938 12.039062 7.585938 11.800781 C 7.585938 11.5625 7.425781 11.402344 7.1875 11.402344 L 1.199219 11.402344 C 1.117188 11.402344 1.046875 11.417969 0.988281 11.453125 L 0.796875 10.640625 L 0.976562 10.203125 L 5.191406 10.203125 C 5.429688 10.203125 5.589844 10.042969 5.589844 9.804688 C 5.589844 9.5625 5.429688 9.40625 5.191406 9.40625 L 1.300781 9.40625 L 2.277344 7.007812 L 9.863281 7.007812 C 10.34375 7.007812 10.78125 6.730469 10.941406 6.289062 L 11.460938 5.011719 L 13.097656 5.011719 L 11.621094 15.394531 L 1.917969 15.394531 Z M 5.191406 21.785156 C 4.074219 21.785156 3.195312 20.90625 3.195312 19.785156 C 3.195312 18.667969 4.074219 17.789062 5.191406 17.789062 C 6.308594 17.789062 7.1875 18.667969 7.1875 19.785156 C 7.1875 20.90625 6.308594 21.785156 5.191406 21.785156 Z M 19.167969 21.785156 C 18.050781 21.785156 17.171875 20.90625 17.171875 19.785156 C 17.171875 18.667969 18.050781 17.789062 19.167969 17.789062 C 20.285156 17.789062 21.164062 18.667969 21.164062 19.785156 C 21.164062 20.90625 20.285156 21.785156 19.167969 21.785156 Z M 23 19.386719 L 21.933594 19.386719 C 21.746094 18.023438 20.589844 16.992188 19.167969 16.992188 C 19.160156 16.992188 19.15625 16.992188 19.148438 16.992188 C 19.140625 16.992188 19.136719 16.992188 19.128906 16.992188 C 17.730469 16.992188 16.574219 18.03125 16.371094 19.386719 L 7.957031 19.386719 C 7.78125 18.109375 6.753906 17.121094 5.453125 17.003906 C 5.445312 17.003906 5.433594 17.003906 5.425781 17 C 5.390625 17 5.359375 16.996094 5.328125 16.996094 C 5.28125 16.992188 5.238281 16.992188 5.191406 16.992188 C 5.144531 16.992188 5.101562 16.992188 5.054688 16.996094 C 5.023438 16.996094 4.992188 17 4.957031 17 C 4.949219 17.003906 4.9375 17.003906 4.929688 17.003906 C 3.628906 17.121094 2.601562 18.109375 2.425781 19.386719 L 2.15625 19.386719 C 2.078125 19.386719 1.996094 19.308594 1.996094 19.226562 L 1.996094 16.191406 L 15.175781 16.191406 L 15.175781 6.929688 C 15.175781 6.730469 15.335938 6.609375 15.496094 6.609375 L 19.167969 6.609375 C 19.328125 6.609375 19.449219 6.648438 19.566406 6.769531 L 20.140625 7.40625 L 17.050781 7.40625 C 16.691406 7.40625 16.371094 7.726562 16.371094 8.085938 L 16.371094 12.320312 C 16.371094 12.679688 16.691406 13 17.050781 13 L 23.160156 13 L 23.160156 14.996094 L 21.164062 14.996094 C 20.925781 14.996094 20.765625 15.15625 20.765625 15.394531 C 20.765625 15.632812 20.925781 15.792969 21.164062 15.792969 L 23.160156 15.792969 L 23.160156 19.226562 C 23.160156 19.308594 23.082031 19.386719 23 19.386719 Z M 23 19.386719"/>
    <path d="M5.191406 18.988281C4.753906 18.988281 4.394531 19.347656 4.394531 19.785156 4.394531 20.226562 4.753906 20.585938 5.191406 20.585938 5.628906 20.585938 5.988281 20.226562 5.988281 19.785156 5.988281 19.347656 5.628906 18.988281 5.191406 18.988281zM19.167969 18.988281C18.730469 18.988281 18.371094 19.347656 18.371094 19.785156 18.371094 20.226562 18.730469 20.585938 19.167969 20.585938 19.605469 20.585938 19.964844 20.226562 19.964844 19.785156 19.964844 19.347656 19.605469 18.988281 19.167969 18.988281zM19.167969 18.988281"/>
</svg>

<svg xmlns="http://www.w3.org/2000/svg" width="32" height="32" viewBox="0 0 24 24">
    <path d="M23.64 10.043l-3.472-3.832a1.432 1.432 0 0 0-1-.441h-3.672c-.64 0-1.121.52-1.121 1.117v8.508h-1.934l1.485-10.383h3.644c.239 0 .399-.16.399-.399 0-.242-.16-.398-.399-.398h-3.812l-1.899-2.277c-.039-.04-.16-.122-.238-.122l-2.797-.398a.455.455 0 0 0-.32.121L7.348 2.695l-1.04.68-2.234-.36c-.199-.038-.398.079-.441.239L2.527 6.21h-.53c-.161 0-.321.078-.4.238L0 10.441v.243l1.2 5.191v3.352c0 .52.437.96.956.96h.27a2.77 2.77 0 0 0 2.765 2.395 2.77 2.77 0 0 0 2.766-2.395h8.445a2.77 2.77 0 0 0 2.766 2.395 2.77 2.77 0 0 0 2.766-2.395H23c.52 0 .96-.44 1-.96V10.96c0-.36-.121-.68-.36-.918zm-.48.918v1.238h-5.988V8.207h3.633L23 10.602c.031.02.055.046.078.074.008.011.02.027.027.043.04.078.055.168.055.242zM4.234 3.855l2.075.36c.12 0 .199 0 .32-.121l1.2-.801c.038 0 .077-.04.077-.04l1.04-1.038 2.437.36 1.355 1.64h-1.617v.004c-.02 0-.035.004-.055.008-.004 0-.007.003-.011.003l-.032.012a.426.426 0 0 0-.242.211l-.597 1.516c-.082.16-.2.242-.36.242H3.355zM1.164 12.2h6.024c.238 0 .398-.16.398-.398 0-.239-.16-.399-.399-.399H1.2a.402.402 0 0 0-.21.051l-.192-.812.18-.438H5.19c.239 0 .399-.16.399-.398 0-.242-.16-.399-.399-.399h-3.89l.976-2.398h7.586c.48 0 .918-.278 1.078-.719l.52-1.277h1.637L11.62 15.395H1.918zm4.027 9.586a1.978 1.978 0 0 1-1.996-2c0-1.117.88-1.996 1.996-1.996 1.118 0 1.997.879 1.997 1.996 0 1.121-.88 2-1.997 2zm13.977 0a1.978 1.978 0 0 1-1.996-2c0-1.117.879-1.996 1.996-1.996s1.996.879 1.996 1.996c0 1.121-.879 2-1.996 2zM23 19.387h-1.066a2.77 2.77 0 0 0-2.766-2.395h-.04c-1.398 0-2.554 1.04-2.757 2.395H7.957a2.767 2.767 0 0 0-2.504-2.383c-.008 0-.02 0-.027-.004-.035 0-.067-.004-.098-.004-.047-.004-.09-.004-.137-.004-.046 0-.09 0-.136.004-.032 0-.063.004-.098.004-.008.004-.02.004-.027.004a2.767 2.767 0 0 0-2.504 2.383h-.27c-.078 0-.16-.078-.16-.16V16.19h13.18V6.93c0-.2.16-.32.32-.32h3.672c.16 0 .281.038.398.16l.575.636h-3.09c-.36 0-.68.32-.68.68v4.234c0 .36.32.68.68.68h6.11v1.996h-1.997c-.238 0-.398.16-.398.399 0 .238.16.398.398.398h1.996v3.434a.17.17 0 0 1-.16.16zm0 0"/>
    <path d="M5.191 18.988a.8.8 0 0 0-.796.797c0 .442.359.8.796.8.438 0 .797-.358.797-.8a.8.8 0 0 0-.797-.797zm0 0M19.168 18.988a.8.8 0 0 0-.797.797c0 .442.36.8.797.8.437 0 .797-.358.797-.8a.8.8 0 0 0-.797-.797zm0 0"/>
</svg>
